X:315
T: Siobhn O'Donnell's #2
S: Traditional Irish Music (K.Tweed)
Z: B.Black
L: 1/8
M: 6/8
R: jig
K: Am
a2 A AGE|GAB A3|eag edc|eAB AGE|
cde dcA|G3 GB/c/d|eAa ged|1 cA^G A3 :|2\
cA^G A2||^g|a^ga ged|ecg edc|A3 GAc|dec deg|
aeg dec|A3 EGE|cde ged|cA^G A2 :|
